X:2
T:Abercairny House
R:Strathspey
B:The Athole Collection
M:C
L:1/8
K:C Minor
C|C<c c>G c>d ed/c/|B>cB>G F/E/D/C/ B,>D|C<c c>G c>d ed/c/|
BF/B/ G/F/E/D/ E<C C>G,|C<c c>G c>d ed/c/|B>cB>G F/E/D/C/ B,>D|
C<c c>B c>d ed/c/|d>B g/f/e/d/ e<cc||
|:G|c>de>c g>ce>c|B>df>b f/e/d/c/ B>d|1 c>de>c g>ce>c|d>B g/f/e/d/ e<cc:|2
e>cd>=B c/B/c/d/ ed/c/|B/G/F/E/ D/E/F/G/ E<CC||

